packages/icons/svg/Fill/cloud-download.svg

<svg fill="none" height="24" viewBox="0 0 24 24" width="24" xmlns="http://www.w3.org/2000/svg"><path clip-rule="evenodd" d="m21.846 10.8274c.0213.068.0427.1361.0568.2068.062.313.097.635.097.966 0 .308-.036.611-.092.91-.0124.0682-.029.1335-.0457.1989-.0076.0296-.0151.0592-.0223.0891-.05.199-.109.394-.182.585-.038.099-.077.196-.121.292-.087.19-.188.372-.299.551-.0172.0278-.0336.056-.05.0841-.0274.047-.0547.0939-.086.1389-.0091.013-.0169.0265-.0246.0398-.0083.0144-.0165.0287-.0264.0422-.0077.0111-.0185.0182-.0291.0251-.0086.0057-.0172.0113-.0239.0189-.912 1.222-2.356 2.025-3.998 2.025h-.012c-.024-.466-.201-.925-.549-1.285-.374-.389-.899-.612-1.439-.612-.356 0-.699.093-1 .268v-3.371c0-1.103-.897-2-2-2-1.102 0-1.99999.897-1.99999 2v3.266c-.301-.173-.643-.266-1-.266-.534 0-1.036.208-1.414.586-.39.389-.585.902-.585 1.414h-.001c-1.642 0-3.086-.803-3.997-2.025-.00701-.0074-.01555-.0129-.02412-.0185-.01099-.0071-.02201-.0142-.02988-.0255-.01058-.0144-.01929-.0298-.02805-.0453-.00697-.0123-.01397-.0247-.02195-.0367-.03192-.0459-.06017-.0939-.0884-.1419-.01599-.0271-.03197-.0543-.0486-.0811-.11-.179-.212-.361-.299-.551-.04259-.0929-.07955-.1867-.11724-.2824l-.00376-.0096c-.072-.191-.132-.386-.181-.585-.00633-.0253-.01286-.0504-.01939-.0754-.01822-.07-.03636-.1397-.04961-.2126-.055-.299-.092-.602-.092-.91 0-.331.036-.653.097-.966.01457-.0728.03678-.1429.05897-.2129.01284-.0405.02567-.081.03703-.1221.00418-.0153.00835-.0307.01251-.046.04768-.1758.09536-.3515.16249-.518.03622-.0905.08069-.17524.1253-.26023.01943-.03703.03889-.0741.0577-.11173.0064-.01271.01278-.02541.01915-.0381.07027-.13994.1395-.27778.22385-.4089.06377-.1009.13601-.19398.20831-.28714.01726-.02224.03453-.04449.05169-.06686l.00354-.00455c.0968-.12446.19277-.24786.30046-.36345.09648-.10404.20011-.19735.30498-.29177.006-.0054.01201-.01081.01802-.01623.118-.106.238-.208.366-.302.119-.088.241-.168.368-.244.14-.086.283-.163.431-.234.13-.063.26-.12.396-.171.162-.062.329-.111.499-.155.135-.036.267-.071.407-.094.02642-.00484.05207-.01182.07771-.01879.03258-.00887.06515-.01773.09929-.02221.821-2.384 3.095-4.045 5.67499-4.045 2.581 0 4.855 1.661 5.675 4.045.0342.00449.0672.01338.1001.02226.0258.00696.0516.01391.0779.01874.139.023.272.058.406.094.17.044.337.093.499.155.136.051.267.108.396.171.148.071.291.148.431.234.127.076.25.156.369.244.127.094.247.196.365.302.112.1.221.198.324.308.109.117.206.242.303.368.0127.01636.0254.03265.0381.04893.0773.09917.1542.1977.2229.30507.0831.1306.152.26787.222.40724.0067.01324.0133.02649.02.03976.0188.03763.0383.0747.0577.11173.0446.08499.0891.16973.1253.26023.0683.167.1161.3433.1639.5195.004.0149.0081.0297.0121.0445.0116.0431.0249.0856.0382.1282zm-8.8458 6.8163 1.305-1.26c.398-.383 1.031-.372 1.414.025.384.398.373 1.031-.024 1.414l-3 2.897c-.195.186-.445.28-.695.28-.256 0-.512-.097-.707-.293l-3.00003-3c-.391-.39-.391-1.023 0-1.414.39-.39 1.023-.39 1.414 0l1.29303 1.293v-5.586c0-.553.448-1 1-1s1 .447 1 1z" fill="#6b7280" fill-rule="evenodd"/></svg>

<svg width="24" height="24" viewBox="0 0 24 24" fill="none" xmlns="http://www.w3.org/2000/svg">
<g id="Icon/Fill/cloud-download">
<path id="Mask" fill-rule="evenodd" clip-rule="evenodd" d="M21.8459 10.8273C21.8673 10.8953 21.8886 10.9634 21.9028 11.0342C21.9648 11.3472 21.9998 11.6692 21.9998 12.0002C21.9998 12.3082 21.9638 12.6112 21.9078 12.9102C21.8954 12.9783 21.8787 13.0437 21.862 13.1091C21.8545 13.1387 21.8469 13.1683 21.8398 13.1982C21.7898 13.3972 21.7308 13.5922 21.6578 13.7832C21.6198 13.8822 21.5808 13.9792 21.5368 14.0752C21.4498 14.2652 21.3488 14.4472 21.2378 14.6262C21.2205 14.6539 21.2041 14.6821 21.1877 14.7103C21.1604 14.7572 21.133 14.8042 21.1018 14.8492C21.0926 14.8622 21.0849 14.8756 21.0772 14.8889C21.0689 14.9034 21.0606 14.9177 21.0508 14.9312C21.043 14.9422 21.0323 14.9493 21.0217 14.9563C21.013 14.9619 21.0045 14.9676 20.9978 14.9752C20.0858 16.1972 18.6418 17.0002 16.9998 17.0002H16.9878C16.9638 16.5342 16.7868 16.0752 16.4388 15.7152C16.0648 15.3262 15.5398 15.1032 14.9998 15.1032C14.6438 15.1032 14.3008 15.1962 13.9998 15.3712V12.0002C13.9998 10.8972 13.1028 10.0002 11.9998 10.0002C10.8978 10.0002 9.99976 10.8972 9.99976 12.0002V15.2662C9.69876 15.0932 9.35676 15.0002 8.99976 15.0002C8.46576 15.0002 7.96376 15.2082 7.58576 15.5862C7.19576 15.9752 7.00076 16.4882 7.00076 17.0002H6.99976C5.35776 17.0002 3.91376 16.1972 3.00276 14.9752C2.99575 14.9677 2.9872 14.9622 2.97864 14.9567C2.96765 14.9496 2.95662 14.9424 2.94876 14.9312C2.93818 14.9167 2.92946 14.9013 2.92071 14.8858C2.91373 14.8735 2.90674 14.8612 2.89876 14.8492C2.86684 14.8032 2.83859 14.7552 2.81036 14.7073C2.79437 14.6801 2.77839 14.6529 2.76176 14.6262C2.65176 14.4472 2.54976 14.2652 2.46276 14.0752C2.42017 13.9823 2.3832 13.8884 2.34551 13.7927L2.34176 13.7832C2.26976 13.5922 2.20976 13.3972 2.16076 13.1982C2.15443 13.1729 2.14789 13.1478 2.14137 13.1227C2.12315 13.0527 2.10501 12.9831 2.09176 12.9102C2.03676 12.6112 1.99976 12.3082 1.99976 12.0002C1.99976 11.6692 2.03576 11.3472 2.09676 11.0342C2.11133 10.9613 2.13353 10.8913 2.15573 10.8212C2.16857 10.7807 2.1814 10.7402 2.19276 10.6992C2.19694 10.6838 2.2011 10.6685 2.20527 10.6531C2.25294 10.4774 2.30062 10.3016 2.36776 10.1352C2.40398 10.0446 2.44845 9.9599 2.49305 9.87491C2.51249 9.83788 2.53194 9.80081 2.55076 9.76318C2.55716 9.75047 2.56353 9.73777 2.5699 9.72508C2.64018 9.58514 2.7094 9.4473 2.79376 9.31618C2.85753 9.21528 2.92977 9.1222 3.00207 9.02904C3.01933 9.00679 3.0366 8.98454 3.05376 8.96218L3.0573 8.95763C3.1541 8.83317 3.25007 8.70977 3.35776 8.59418C3.45423 8.49014 3.55787 8.39683 3.66273 8.30241C3.66874 8.29701 3.67475 8.2916 3.68076 8.28618C3.79876 8.18018 3.91876 8.07818 4.04676 7.98418C4.16576 7.89618 4.28776 7.81618 4.41476 7.74018C4.55476 7.65418 4.69776 7.57718 4.84576 7.50618C4.97576 7.44318 5.10576 7.38618 5.24176 7.33518C5.40376 7.27318 5.57076 7.22418 5.74076 7.18018C5.87576 7.14418 6.00776 7.10918 6.14776 7.08618C6.17418 7.08134 6.19983 7.07436 6.22547 7.06739C6.25805 7.05852 6.29062 7.04966 6.32476 7.04518C7.14576 4.66118 9.41976 3.00018 11.9998 3.00018C14.5808 3.00018 16.8548 4.66118 17.6748 7.04518C17.709 7.04967 17.7419 7.05856 17.7748 7.06744C17.8006 7.0744 17.8264 7.08135 17.8528 7.08618C17.9918 7.10918 18.1248 7.14418 18.2588 7.18018C18.4288 7.22418 18.5958 7.27318 18.7578 7.33518C18.8938 7.38618 19.0248 7.44318 19.1538 7.50618C19.3018 7.57718 19.4448 7.65418 19.5848 7.74018C19.7118 7.81618 19.8348 7.89618 19.9538 7.98418C20.0808 8.07818 20.2008 8.18018 20.3188 8.28618C20.4308 8.38618 20.5398 8.48418 20.6428 8.59418C20.7518 8.71118 20.8488 8.83618 20.9458 8.96218C20.9584 8.97854 20.9711 8.99483 20.9838 9.0111C21.0612 9.11028 21.138 9.2088 21.2068 9.31618C21.2899 9.44678 21.3588 9.58405 21.4288 9.72342C21.4354 9.73666 21.4421 9.74991 21.4488 9.76318C21.4676 9.80081 21.487 9.83788 21.5065 9.87491C21.5511 9.9599 21.5955 10.0446 21.6318 10.1352C21.7 10.3021 21.7479 10.4784 21.7957 10.6547C21.7997 10.6695 21.8037 10.6844 21.8078 10.6992C21.8193 10.7423 21.8326 10.7848 21.8459 10.8273ZM13.0002 17.6438L14.3052 16.3838C14.7032 16.0008 15.3362 16.0118 15.7192 16.4088C16.1032 16.8068 16.0922 17.4398 15.6952 17.8228L12.6952 20.7198C12.5002 20.9058 12.2502 20.9998 12.0002 20.9998C11.7442 20.9998 11.4882 20.9028 11.2932 20.7068L8.29316 17.7068C7.90216 17.3168 7.90216 16.6838 8.29316 16.2928C8.68316 15.9028 9.31616 15.9028 9.70716 16.2928L11.0002 17.5858V11.9998C11.0002 11.4468 11.4482 10.9998 12.0002 10.9998C12.5522 10.9998 13.0002 11.4468 13.0002 11.9998V17.6438Z" fill="#000000"/>
</g>
</svg>
